X:107
T:RVW2/2/107 Hunting Song
C:Mr. Garman, ockley, Surrey, 25 May 1904
L:1/8
Q:1/4=99
M:6/8
I:linebreak $
K:G
"^(Editorial suggestion " D | G2 G A2 A | BAB d2 e | dBG c2 c | BcA G2 d |$ e2 c AAG | G2 G D2 d | 
e2 c BAG | GBd"^(a)" d3 |$ GGG AAA | BAB d2 d | dBG c2 c | BcA G2 ||$ D | G2 G A2 A | BAB d2 e | 
dBG c2 c | BcA G2 d |$ e2 c AAG | G2 G D2 d | e2 c BAG | GBd"^(a) var." d2 D |$ GGG AAA | 
BAB d2 d | dBG c2 c | BcA G2 |] 



